X: 1700
T: Antigonish Polka, The
R: barndance
M: 4/4
K: Dmajor
Ad|fgab a2 d2|d2 c2 cBce|a2 c2 cBce|a2 d2 dcde|
fgab a2 d2|d2 c2 cBce|a/a/a ab agfe|1 d4 d2:|2 d4||
K: G Major
c4|BcdB e2 B2|d2 c2 cBcd|e2 c2 f2 d2|e2 d2 d^c d2|
B2 g2 gf g2|A2 e2 egfe|dgfe dcBA|G4 G2 DG|
BcdB e2 B2|d2 c2 cBcd|e2 A2 f2 d2|e2 d2 d3 c|
B2 g2 gf g2|A2 e2 egfe|dgfe dcBA|G4 G2||

